!!!COM: Palestrina, Giovanni Perluigi da
!!!OPR: Missa Ave Maria (1596)
!!!OTL: Agnus II
**kern	**kern	**kern	**kern	**kern	**kern	**kern	**kern
*Ibass	*Ibass	*Itenor	*Itenor	*Icalto	*Icalto	*Icant	*Icant
!Bassus 2	!Bassus 1	!Tenor 2	!Tenor 1	!Altus 2	!Altus 1	!Cantus 2	!Cantus 1
*clefF4	*clefF4	*clefGv2	*clefGv2	*clefG2	*clefG2	*clefG2	*clefG2
*k[b-]	*k[b-]	*k[b-]	*k[b-]	*k[b-]	*k[b-]	*k[b-]	*k[b-]
*F:ion	*F:ion	*F:ion	*F:ion	*F:ion	*F:ion	*F:ion	*F:ion
*M4/2	*M4/2	*M4/2	*M4/2	*M4/2	*M4/2	*M4/2	*M4/2
=1	=1	=1	=1	=1	=1	=1	=1
0r	0B-	0r	0d	0f	0r	0r	1r
.	.	.	.	.	.	.	[1b-
=2	=2	=2	=2	=2	=2	=2	=2
0r	1G	0r	1B-	1e	0r	0r	1b-]
.	1F	.	2c	2.f	.	.	1a
.	.	.	[2d	.	.	.	.
.	.	.	.	4e	.	.	.
=3	=3	=3	=3	=3	=3	=3	=3
0r	2.G	0r	4d]	1.d	0r	0r	2.b-
.	.	.	4c	.	.	.	.
.	.	.	1B-	.	.	.	.
.	4F	.	.	.	.	.	4a
.	2D	.	.	.	.	.	2f
.	2F	.	2A	2c	.	.	2a
=4	=4	=4	=4	=4	=4	=4	=4
0B-	1E-	0r	2B-	1e-	1r	1r	1g
.	.	.	4G	.	.	.	.
.	.	.	4A	.	.	.	.
.	1BB-	.	4B-	2.d	2r	[1b-	1f
.	.	.	4c	.	.	.	.
.	.	.	[2d	.	[2f	.	.
.	.	.	.	4c	.	.	.
=5	=5	=5	=5	=5	=5	=5	=5
1G	0r	0r	2d]	1B-	2f]	1b-]	0r
.	.	.	4c	.	2e	.	.
.	.	.	4B-	.	.	.	.
1F	.	.	1c	1r	2.f	1a	.
.	.	.	.	.	4e	.	.
=6	=6	=6	=6	=6	=6	=6	=6
2.G	0r	0r	1B-	2r	1.d	2.b-	0r
.	.	.	.	1B-	.	.	.
4F	.	.	.	.	.	4a	.
2D	.	.	1r	.	.	2f	.
2F	.	.	.	2A	2c	2a	.
=7	=7	=7	=7	=7	=7	=7	=7
1E-	1r	0r	0r	2.B-	1e-	1g	1r
.	.	.	.	4c	.	.	.
1BB-	2r	.	.	4d	2d	1f	2.dd
.	.	.	.	4e	.	.	.
.	[2B-	.	.	[2f	4B-	.	.
.	.	.	.	.	4c	.	4ee
=8	=8	=8	=8	=8	=8	=8	=8
0r	2B-]	0r	1r	4f]	4d	0r	2ff
.	.	.	.	4g	4e	.	.
.	2A	.	.	2a	2.f	.	2cc
.	2.B-	.	2.d	[1f	.	.	2.dd
.	.	.	.	.	4e	.	.
.	.	.	.	.	2d	.	.
.	4A	.	4e	.	.	.	4cc
=9	=9	=9	=9	=9	=9	=9	=9
0r	2F	0r	2f	1f]	2c	0r	4a
.	.	.	.	.	.	.	4b-
.	2A	.	2c	.	1f	.	2.cc
.	1G	.	2d	1r	.	.	.
.	.	.	.	.	.	.	4b-
.	.	.	4c	.	2e	.	[2b-
.	.	.	4B-	.	.	.	.
=10	=10	=10	=10	=10	=10	=10	=10
1r	1F	0r	1c	2r	[0f	1r	2b-]
.	.	.	.	2c	.	.	2a
2r	1BB-	.	1B-	2d	.	2.dd	1b-
[2B-	.	.	.	4B-	.	.	.
.	.	.	.	4c	.	4ee	.
=11	=11	=11	=11	=11	=11	=11	=11
2B-]	0r	0r	1r	4d	0f]	2ff	0r
.	.	.	.	4e	.	.	.
2A	.	.	.	2.f	.	2cc	.
2.B-	.	.	2.d	.	.	2.dd	.
.	.	.	.	4e	.	.	.
.	.	.	.	2d	.	.	.
4A	.	.	4e	.	.	4cc	.
=12	=12	=12	=12	=12	=12	=12	=12
2F	0r	0r	2f	2c	0r	4a	0r
.	.	.	.	.	.	4b-	.
2A	.	.	2c	1f	.	2.cc	.
1G	.	.	2d	.	.	.	.
.	.	.	.	.	.	4b-	.
.	.	.	4c	2e	.	[2b-	.
.	.	.	4B-	.	.	.	.
=13	=13	=13	=13	=13	=13	=13	=13
1F	0r	0r	1c	1f	1r	2b-]	2r
.	.	.	.	.	.	2a	2ff
1BB-	.	.	[1B-	[1d	2r	1b-	1ff
.	.	.	.	.	2f	.	.
=14	=14	=14	=14	=14	=14	=14	=14
0r	2r	0r	1B-]	1d]	1f	0r	1dd
.	2B-	.	.	.	.	.	.
.	1B-	.	1r	1f	[1d	.	1dd
=15	=15	=15	=15	=15	=15	=15	=15
0r	1G	0r	1d	1g	2d]	0r	2b-
.	.	.	.	.	2B-	.	2g
.	1G	.	1B-	2g	2d	.	1b-
.	.	.	.	2g	2e	.	.
=16	=16	=16	=16	=16	=16	=16	=16
0r	2F	0r	2c	1.a	1f	2r	2a
.	2D	.	2d	.	.	2ff	4f
.	.	.	.	.	.	.	4g
.	1F	.	2c	.	1f	1ff	4a
.	.	.	.	.	.	.	4b-
.	.	.	2A	2a	.	.	2cc
=17	=17	=17	=17	=17	=17	=17	=17
2r	0BB-	0r	2.B-	1f	1r	1dd	4b-
.	.	.	.	.	.	.	4cc
2B-	.	.	.	.	.	.	4dd
.	.	.	4c	.	.	.	4ee
1B-	.	.	4d	1f	1b-	1dd	2ff
.	.	.	4e	.	.	.	.
.	.	.	4f	.	.	.	2dd
.	.	.	4d	.	.	.	.
=18	=18	=18	=18	=18	=18	=18	=18
1G	0r	0r	0g	2r	1b-	2b-	1dd
.	.	.	.	2B-	.	2g	.
1G	.	.	.	2B-	2g	1b-	1r
.	.	.	.	2G	2d	.	.
=19	=19	=19	=19	=19	=19	=19	=19
2F	0r	0r	2c	2A	1.f	2a	0r
2D	.	.	2d	2B-	.	4f	.
.	.	.	.	.	.	4g	.
1F	.	.	2c	2A	.	4a	.
.	.	.	.	.	.	4b-	.
.	.	.	2A	[2f	2c	2cc	.
=20	=20	=20	=20	=20	=20	=20	=20
0BB-	0r	0r	2B-	4f]	1d	4b-	1dd
.	.	.	.	4e	.	4cc	.
.	.	.	2B-	4d	.	4dd	.
.	.	.	.	4c	.	4ee	.
.	.	.	2r	1d	1B-	2ff	2dd
.	.	.	[2d	.	.	2dd	[2ff
=21	=21	=21	=21	=21	=21	=21	=21
0r	0r	0r	2d]	1B-	2r	1dd	4ff]
.	.	.	.	.	.	.	4ee
.	.	.	2d	.	2d	.	4dd
.	.	.	.	.	.	.	4cc
.	.	.	1f	2r	2d	1r	2dd
.	.	.	.	2d	[2f	.	2a
=22	=22	=22	=22	=22	=22	=22	=22
0r	0r	[0B-	2d	2d	2f]	0r	0r
.	.	.	4B-	1f	2d	.	.
.	.	.	4c	.	.	.	.
.	.	.	4d	.	2.f	.	.
.	.	.	4e	.	.	.	.
.	.	.	[2f	2d	.	.	.
.	.	.	.	.	4e	.	.
=23	=23	=23	=23	=23	=23	=23	=23
0r	0r	0B-]	4f]	1f	4d	1dd	1r
.	.	.	8e	.	4c	.	.
.	.	.	8d	.	.	.	.
.	.	.	2c	.	2d	.	.
.	.	.	1d	2.f	4B-	2dd	2r
.	.	.	.	.	4c	.	.
.	.	.	.	.	4d	[2ff	2dd
.	.	.	.	4g	4e	.	.
=24	=24	=24	=24	=24	=24	=24	=24
0r	1D	[0A	1d	1a	2.f	4ff]	2dd
.	.	.	.	.	.	4ee	.
.	.	.	.	.	.	4dd	2.ff
.	.	.	.	.	4g	4cc	.
.	2D	.	1r	2r	1a	2dd	.
.	.	.	.	.	.	.	4ee
.	[2F	.	.	[2f	.	2a	2cc
=25	=25	=25	=25	=25	=25	=25	=25
0r	4F]	0A]	2.a	2f]	2r	0r	2dd
.	4E	.	.	.	.	.	.
.	2C	.	.	2e	2.a	.	1ee
.	.	.	4g	.	.	.	.
.	1D	.	2f	1a	.	.	.
.	.	.	.	.	4g	.	.
.	.	.	2d	.	2f	.	[2dd
=26	=26	=26	=26	=26	=26	=26	=26
0r	1AA	[0A	1e	2.a	2e	1r	2dd]
.	.	.	.	.	1a	.	2cc#
.	.	.	.	4g	.	.	.
.	1D	.	2d	4f	.	2r	1dd
.	.	.	.	4e	.	.	.
.	.	.	[2f	2d	2a	2dd	.
=27	=27	=27	=27	=27	=27	=27	=27
1D	0r	0A]	4f]	1a	2.f	2dd	0r
.	.	.	4e	.	.	.	.
.	.	.	1d	.	.	2.ff	.
.	.	.	.	.	4g	.	.
2D	.	.	.	2.f	2.a	.	.
.	.	.	.	.	.	4ee	.
[2F	.	.	2A	.	.	2cc	.
.	.	.	.	4g	4g	.	.
=28	=28	=28	=28	=28	=28	=28	=28
4F]	0r	[0A	2r	1a	2f	2dd	0r
4E	.	.	.	.	.	.	.
2C	.	.	2e	.	2e	1ee	.
1D	.	.	2f	2r	[1a	.	.
.	.	.	2d	[2a	.	[2dd	.
=29	=29	=29	=29	=29	=29	=29	=29
1AA	0r	0A]	2e	2a]	1a]	2dd]	1r
.	.	.	2.a	2e	.	2cc#	.
1D	.	.	.	2f	2r	1dd	2r
.	.	.	4g	.	.	.	.
.	.	.	4f	[2d	2a	.	2dd
.	.	.	4e	.	.	.	.
=30	=30	=30	=30	=30	=30	=30	=30
0r	1BB-	0B-	2.d	2d]	1f	0r	2dd
.	.	.	.	4B-	.	.	2.ff
.	.	.	4c	4c	.	.	.
.	1BB-	.	1B-	4d	1b-	.	.
.	.	.	.	4e	.	.	4ee
.	.	.	.	[2f	.	.	2dd
=31	=31	=31	=31	=31	=31	=31	=31
0r	2r	[0F	2c	2f]	2a	0r	4cc
.	.	.	.	.	.	.	4b-
.	1F	.	2A	2c	4cc	.	4a
.	.	.	.	.	4b-	.	4g
.	.	.	2c	1r	4a	.	2.f
.	.	.	.	.	4g	.	.
.	2D	.	2d	.	[2f	.	.
.	.	.	.	.	.	.	4g
=32	=32	=32	=32	=32	=32	=32	=32
0r	1A	1F_	2c	2r	4f]	1r	0a
.	.	.	.	.	4g	.	.
.	.	.	2.f	2c	1a	.	.
.	1D	1F_	.	2d	.	2r	.
.	.	.	4e	.	.	.	.
.	.	.	4d	[2d	2f	2dd	.
.	.	.	4c	.	.	.	.
=33	=33	=33	=33	=33	=33	=33	=33
1BB-	0r	0F]	1d	2d]	0f	2dd	2.b-
.	.	.	.	2B-	.	2.ff	.
.	.	.	.	.	.	.	4cc
1BB-	.	.	2B-	1b-	.	.	2dd
.	.	.	.	.	.	4ee	.
.	.	.	[2F	.	.	2dd	2b-
=34	=34	=34	=34	=34	=34	=34	=34
2r	0r	[0A	4F]	0a	2r	4cc	1cc
.	.	.	4G	.	.	4b-	.
1F	.	.	4A	.	2c	4a	.
.	.	.	4B-	.	.	4g	.
.	.	.	2c	.	2A	2.f	1r
2D	.	.	[2d	.	2f	.	.
.	.	.	.	.	.	4g	.
=35	=35	=35	=35	=35	=35	=35	=35
1A	0r	0A]	2d]	2r	1e	0a	1r
.	.	.	2c#	2e	.	.	.
1D	.	.	1d	1f#	1d	.	2r
.	.	.	.	.	.	.	[2dd
=36	=36	=36	=36	=36	=36	=36	=36
0r	1G	0G	2r	0g	1d	2.b-	2dd]
.	.	.	4G	.	.	.	2dd
.	.	.	4A	.	.	4cc	.
.	1G	.	4B-	.	2r	2dd	2gg
.	.	.	4c	.	.	.	.
.	.	.	2d	.	2d	2b-	2gg
=37	=37	=37	=37	=37	=37	=37	=37
0r	2C	0G	4c	0g	2e	1cc	1ee
.	.	.	4d	.	.	.	.
.	2C	.	4e	.	2.g	.	.
.	.	.	4f	.	.	.	.
.	1C	.	2g	.	.	1r	1cc
.	.	.	.	.	4f	.	.
.	.	.	2G	.	2e	.	.
=38	=38	=38	=38	=38	=38	=38	=38
0r	1G	[0B-	4G	0g	2d	1r	1dd
.	.	.	4A	.	.	.	.
.	.	.	4B-	.	4G	.	.
.	.	.	4c	.	4A	.	.
.	1r	.	2d	.	4B-	2r	2dd
.	.	.	.	.	4c	.	.
.	.	.	4G	.	2d	[2dd	2dd
.	.	.	4A	.	.	.	.
=39	=39	=39	=39	=39	=39	=39	=39
1G	0r	0B-]	4B-	1g	4G	2dd]	2b-
.	.	.	4c	.	4A	.	.
.	.	.	1d	.	4B-	2dd	4g
.	.	.	.	.	4c	.	4a
1G	.	.	.	2r	1d	2gg	4b-
.	.	.	.	.	.	.	4cc
.	.	.	2G	2g	.	2gg	2dd
=40	=40	=40	=40	=40	=40	=40	=40
2C	0r	[0c	2r	2g	2.e	1ee	1cc
2C	.	.	2g	4c	.	.	.
.	.	.	.	4d	4f	.	.
1C	.	.	2g	4e	1g	[1cc	2r
.	.	.	.	4f	.	.	.
.	.	.	[2e	[2g	.	.	[2gg
=41	=41	=41	=41	=41	=41	=41	=41
1G	1C	1c_	2e]	2g]	2r	0cc]	2gg]
.	.	.	4c	2e	2g	.	2gg
.	.	.	4d	.	.	.	.
1r	1C	1c_	4e	1g	2c	.	1ee
.	.	.	4f	.	.	.	.
.	.	.	2g	.	[2cc	.	.
=42	=42	=42	=42	=42	=42	=42	=42
0r	1.F	0c]	1f	1a	4cc]	[0cc	2ff
.	.	.	.	.	4b-	.	.
.	.	.	.	.	1a	.	4f
.	.	.	.	.	.	.	4g
.	.	.	2F	2r	.	.	4a
.	.	.	.	.	.	.	4b-
.	2E	.	2G	[2c	2g	.	2cc
=43	=43	=43	=43	=43	=43	=43	=43
0r	2.F	[0c	2.A	2c]	2f	0cc]	0a
.	.	.	.	2f	2.cc	.	.
.	4G	.	4B-	.	.	.	.
.	2A	.	2c	2e	.	.	.
.	.	.	.	.	4b-	.	.
.	2F	.	[2f	2f	2a	.	.
=44	=44	=44	=44	=44	=44	=44	=44
1C	2.c	1c_	2f]	2g	0g	[0cc	2r
.	.	.	4e	2c	.	.	1cc
.	8B-	.	4d	.	.	.	.
.	8A	.	.	.	.	.	.
1C	1G	1c_	1e	2r	.	.	.
.	.	.	.	[2cc	.	.	2g
=45	=45	=45	=45	=45	=45	=45	=45
1.F	1F	0c]	1f	4cc]	2r	0cc]	2a
.	.	.	.	4b-	.	.	.
.	.	.	.	1a	2.c	.	4f
.	.	.	.	.	.	.	4g
.	2.c	.	2F	.	.	.	4a
.	.	.	.	.	4d	.	4b-
2E	.	.	2G	2g	2e	.	[2cc
.	4B-	.	.	.	.	.	.
=46	=46	=46	=46	=46	=46	=46	=46
2.F	2.A	[0c	2A	0f	2c	[0cc	2cc]
.	.	.	2.F	.	2cc	.	2.a
4G	4G	.	.	.	.	.	.
2A	1F	.	.	.	2.a	.	.
.	.	.	4G	.	.	.	4f
2F	.	.	2A	.	.	.	[2ff
.	.	.	.	.	4b-	.	.
=47	=47	=47	=47	=47	=47	=47	=47
2.c	0C	1c_	1G	1.g	2cc	0cc]	2ff]
.	.	.	.	.	2.cc	.	4ee
8B-	.	.	.	.	.	.	4dd
8A	.	.	.	.	.	.	.
1G	.	1c_	1c	.	.	.	1ee
.	.	.	.	.	4b-	.	.
.	.	.	.	[2cc	2g	.	.
=48	=48	=48	=48	=48	=48	=48	=48
[0F	[0F	0c]	[0A	4cc]	1a	[0cc	[0ff
.	.	.	.	4b-	.	.	.
.	.	.	.	4a	.	.	.
.	.	.	.	4g	.	.	.
.	.	.	.	1a	2.f	.	.
.	.	.	.	.	4g	.	.
=49	=49	=49	=49	=49	=49	=49	=49
0F]	0F]	0c	0A]	0f	0a	0cc]	0ff]
==	==	==	==	==	==	==	==
*-	*-	*-	*-	*-	*-	*-	*-
!!!CDT: 1525/^1526/-1594/2/2
!!!OCY: Italia
!!!AGN: Mass (Tenor)
!!!AST: renaissance, vocal
!!!ASW: Motet 1563 (Palestrina)
!!!PWK: Masses, Book 6
!!!RNB: Cadence finals: C
!!!YOR: Le Opere Complete, v. 21, p. 142
!!!YOO: Rome, Italy: Fratelli Scalera
!!!END: 1992//
!!!EED: John Miller
!!!YEC: Copyright 2000, John Miller
!!!YEN: United States of America
!!!YEM: Rights to all derivative electronic formats reserved.
!!!YEM: Refer to licensing agreement for further details.
!!!YEM: This file must be accompanied by the licensing agreement.
!!!YEM: A copy of the licensing agreement may be found at http://www.music-cog.ohio-state.edu/HumdrumDatabases/Palestrina/license.txt
!!!EMD: converted to Humdrum by Bret Aarden
